Numix/64/emotes/face-monkey.svg

<?xml version="1.0" encoding="UTF-8" standalone="no"?>
<svg
   xmlns:dc="http://purl.org/dc/elements/1.1/"
   xmlns:cc="http://creativecommons.org/ns#"
   xmlns:rdf="http://www.w3.org/1999/02/22-rdf-syntax-ns#"
   xmlns:svg="http://www.w3.org/2000/svg"
   xmlns="http://www.w3.org/2000/svg"
   xmlns:sodipodi="http://sodipodi.sourceforge.net/DTD/sodipodi-0.dtd"
   xmlns:inkscape="http://www.inkscape.org/namespaces/inkscape"
   width="64px"
   height="64px"
   viewBox="0 0 48 48"
   version="1.1"
   id="svg42"
   inkscape:version="0.91 r"
   sodipodi:docname="face-monkey.svg">
  <metadata
     id="metadata65">
    <rdf:RDF>
      <cc:Work
         rdf:about="">
        <dc:format>image/svg+xml</dc:format>
        <dc:type
           rdf:resource="http://purl.org/dc/dcmitype/StillImage" />
      </cc:Work>
    </rdf:RDF>
  </metadata>
  <defs
     id="defs63" />
  <sodipodi:namedview
     pagecolor="#ffffff"
     bordercolor="#666666"
     borderopacity="1"
     objecttolerance="10"
     gridtolerance="10"
     guidetolerance="10"
     inkscape:pageopacity="0"
     inkscape:pageshadow="2"
     inkscape:window-width="640"
     inkscape:window-height="480"
     id="namedview61" />
  <g
     id="surface1">
    <path
       style=" stroke:none;fill-rule:nonzero;fill:rgb(100%,80.784314%,24.313725%);fill-opacity:1;"
       d="M 42 24 C 42 32.5625 33.941406 39.5 24 39.5 C 14.058594 39.5 6 32.5625 6 24 C 6 15.441406 14.058594 8.5 24 8.5 C 33.941406 8.5 42 15.441406 42 24 Z M 42 24 "
       id="path45" />
    <path
       style=" stroke:none;fill-rule:nonzero;fill:rgb(18.431373%,18.431373%,18.431373%);fill-opacity:1;"
       d="M 23.214844 27.382812 C 23.480469 27.511719 23.828125 27.589844 24.222656 27.542969 C 24.859375 27.476562 25.085938 27.265625 25.3125 27.011719 C 25.667969 26.601562 25.800781 26.035156 25.277344 25.726562 C 24.839844 25.476562 23.914062 25.460938 23.308594 25.582031 C 21.839844 25.871094 22.332031 26.96875 23.214844 27.382812 Z M 23.214844 27.382812 "
       id="path47" />
    <path
       style=" stroke:none;fill-rule:nonzero;fill:rgb(87.058824%,44.313725%,21.176471%);fill-opacity:1;"
       d="M 29.878906 31.324219 C 27.886719 30.953125 23.609375 30.929688 20.804688 31.105469 C 14.042969 31.53125 16.308594 33.136719 20.371094 33.746094 C 21.605469 33.929688 23.207031 34.046875 25.007812 33.984375 C 27.957031 33.882812 29.003906 33.574219 30.042969 33.203125 C 31.707031 32.601562 32.304688 31.773438 29.878906 31.324219 Z M 29.878906 31.324219 "
       id="path49" />
    <path
       style=" stroke:none;fill-rule:nonzero;fill:rgb(52.156863%,36.078431%,32.156863%);fill-opacity:1;"
       d="M 24.523438 8.507812 C 16.636719 8.316406 9.523438 12.570312 6.980469 19 C 5.203125 19.007812 3.558594 19.960938 2.671875 21.5 C 1.777344 23.046875 1.777344 24.953125 2.671875 26.5 C 3.5625 28.042969 5.207031 28.996094 6.992188 29 C 9.492188 35.253906 16.328125 39.453125 24.011719 39.453125 C 31.691406 39.453125 38.527344 35.253906 41.03125 29 C 42.804688 28.988281 44.441406 28.039062 45.328125 26.5 C 46.222656 24.953125 46.222656 23.046875 45.328125 21.5 C 44.441406 19.960938 42.800781 19.007812 41.019531 19 C 38.597656 12.882812 32.023438 8.699219 24.523438 8.507812 Z M 17.441406 15.996094 C 19.695312 16.101562 21.726562 18.074219 24.007812 18.011719 C 26.4375 18.082031 28.585938 15.832031 31.023438 16 C 31.585938 16.039062 32.191406 16.023438 32.738281 16.1875 C 34.273438 16.664062 35.355469 17.859375 35.96875 19.25 C 36.53125 20.550781 36.335938 21.871094 35.921875 23.183594 C 35.597656 24.203125 35.582031 25.570312 35.734375 26.625 C 35.878906 27.625 36.453125 28.558594 36.515625 29.5625 C 36.675781 32.304688 34.300781 34.15625 31.921875 35.1875 C 29.570312 36.214844 26.6875 36.605469 24 36.5625 C 21.3125 36.605469 18.429688 36.214844 16.078125 35.1875 C 13.699219 34.152344 11.320312 32.300781 11.496094 29.5625 C 11.558594 28.554688 12.128906 27.621094 12.277344 26.625 C 12.429688 25.574219 12.414062 24.203125 12.089844 23.183594 C 11.675781 21.867188 11.472656 20.550781 12.046875 19.25 C 12.652344 17.859375 13.730469 16.664062 15.269531 16.1875 C 15.816406 16.023438 16.421875 16.035156 16.984375 16 C 17.136719 15.988281 17.292969 15.988281 17.441406 15.996094 Z M 17.441406 15.996094 "
       id="path51" />
    <path
       style=" stroke:none;fill-rule:nonzero;fill:rgb(39.607843%,39.607843%,39.607843%);fill-opacity:1;"
       d="M 20.5 20.5 C 20.5 21.878906 19.378906 23 18 23 C 16.621094 23 15.5 21.878906 15.5 20.5 C 15.5 19.121094 16.621094 18 18 18 C 19.378906 18 20.5 19.121094 20.5 20.5 Z M 20.5 20.5 "
       id="path53" />
    <path
       style=" stroke:none;fill-rule:nonzero;fill:rgb(39.607843%,39.607843%,39.607843%);fill-opacity:1;"
       d="M 32.5 20.5 C 32.5 21.878906 31.378906 23 30 23 C 28.621094 23 27.5 21.878906 27.5 20.5 C 27.5 19.121094 28.621094 18 30 18 C 31.378906 18 32.5 19.121094 32.5 20.5 Z M 32.5 20.5 "
       id="path55" />
    <path
       style=" stroke:none;fill-rule:nonzero;fill:rgb(100%,80.784314%,24.313725%);fill-opacity:1;"
       d="M 6 26.5 C 5.285156 26.5 4.625 26.023438 4.269531 25.25 C 3.910156 24.476562 3.910156 23.523438 4.269531 22.75 C 4.625 21.976562 5.285156 21.5 6 21.5 Z M 6 26.5 "
       id="path57" />
    <path
       style=" stroke:none;fill-rule:nonzero;fill:rgb(100%,80.784314%,24.313725%);fill-opacity:1;"
       d="M 42 26.5 C 42.714844 26.5 43.375 26.023438 43.730469 25.25 C 44.089844 24.476562 44.089844 23.523438 43.730469 22.75 C 43.375 21.976562 42.714844 21.5 42 21.5 Z M 42 26.5 "
       id="path59" />
  </g>
</svg>

<svg xmlns="http://www.w3.org/2000/svg" width="64" height="64" viewBox="0 0 48 48">
 <g>
  <path d="m 42 24 c 0 8.563 -8.06 15.5 -18 15.5 c -9.941 0 -18 -6.938 -18 -15.5 c 0 -8.559 8.06 -15.5 18 -15.5 c 9.941 0 18 6.941 18 15.5 m 0 0" style="fill:#ffce3d;fill-opacity:1;stroke:none;fill-rule:nonzero"/>
  <path d="m 23.21 27.383 c 0.266 0.129 0.613 0.207 1.01 0.16 c 0.637 -0.066 0.863 -0.277 1.09 -0.531 c 0.355 -0.41 0.488 -0.977 -0.035 -1.285 c -0.438 -0.25 -1.363 -0.266 -1.969 -0.145 c -1.469 0.289 -0.977 1.387 -0.094 1.801 m 0 0" style="fill:#2f2f2f;fill-opacity:1;stroke:none;fill-rule:nonzero"/>
  <path d="m 29.879 31.32 c -1.992 -0.371 -6.27 -0.395 -9.07 -0.219 c -6.762 0.426 -4.496 2.031 -0.434 2.641 c 1.234 0.184 2.836 0.301 4.637 0.238 c 2.949 -0.102 3.996 -0.41 5.04 -0.781 c 1.664 -0.602 2.262 -1.43 -0.164 -1.879 m 0 0" style="fill:#de7036;fill-opacity:1;stroke:none;fill-rule:nonzero"/>
  <path d="m 24.523 8.508 c -7.887 -0.191 -15 4.063 -17.543 10.492 c -1.777 0.008 -3.422 0.961 -4.309 2.5 c -0.895 1.547 -0.895 3.453 0 5 c 0.891 1.543 2.535 2.496 4.32 2.5 c 2.5 6.254 9.336 10.453 17.02 10.453 c 7.68 0 14.516 -4.199 17.02 -10.453 c 1.773 -0.012 3.41 -0.961 4.297 -2.5 c 0.895 -1.547 0.895 -3.453 0 -5 c -0.887 -1.539 -2.527 -2.492 -4.309 -2.5 c -2.422 -6.117 -8.996 -10.301 -16.496 -10.492 m -7.082 7.488 c 2.254 0.105 4.285 2.078 6.566 2.02 c 2.43 0.07 4.578 -2.18 7.02 -2.01 c 0.563 0.039 1.168 0.023 1.715 0.188 c 1.535 0.477 2.617 1.672 3.23 3.063 c 0.563 1.301 0.367 2.621 -0.047 3.934 c -0.324 1.02 -0.34 2.387 -0.188 3.441 c 0.145 1 0.719 1.934 0.781 2.938 c 0.16 2.742 -2.215 4.594 -4.594 5.625 c -2.352 1.027 -5.234 1.418 -7.922 1.375 c -2.688 0.043 -5.57 -0.348 -7.922 -1.375 c -2.379 -1.035 -4.758 -2.887 -4.582 -5.625 c 0.063 -1.01 0.633 -1.941 0.781 -2.938 c 0.152 -1.051 0.137 -2.422 -0.188 -3.441 c -0.414 -1.316 -0.617 -2.633 -0.043 -3.934 c 0.605 -1.391 1.684 -2.586 3.223 -3.063 c 0.547 -0.164 1.152 -0.152 1.715 -0.188 c 0.152 -0.012 0.309 -0.012 0.457 -0.004 m 0 0" style="fill:#855b52;fill-opacity:1;stroke:none;fill-rule:nonzero"/>
  <path d="m 20.5 20.5 c 0 1.379 -1.121 2.5 -2.5 2.5 c -1.379 0 -2.5 -1.121 -2.5 -2.5 c 0 -1.379 1.121 -2.5 2.5 -2.5 c 1.379 0 2.5 1.121 2.5 2.5 m 0 0" style="fill:#646464;fill-opacity:1;stroke:none;fill-rule:nonzero"/>
  <path d="m 32.5 20.5 c 0 1.379 -1.121 2.5 -2.5 2.5 c -1.379 0 -2.5 -1.121 -2.5 -2.5 c 0 -1.379 1.121 -2.5 2.5 -2.5 c 1.379 0 2.5 1.121 2.5 2.5 m 0 0" style="fill:#646464;fill-opacity:1;stroke:none;fill-rule:nonzero"/>
  <path d="m 6 26.5 c -0.715 0 -1.375 -0.477 -1.73 -1.25 c -0.359 -0.773 -0.359 -1.727 0 -2.5 c 0.355 -0.773 1.016 -1.25 1.73 -1.25 m 0 5" style="fill:#ffce3d;fill-opacity:1;stroke:none;fill-rule:nonzero"/>
  <path d="m 42 26.5 c 0.715 0 1.375 -0.477 1.73 -1.25 c 0.359 -0.773 0.359 -1.727 0 -2.5 c -0.355 -0.773 -1.016 -1.25 -1.73 -1.25 m 0 5" style="fill:#ffce3d;fill-opacity:1;stroke:none;fill-rule:nonzero"/>
 </g>
</svg>
